X: 1
T: Barrel Rafferty's
M: 6/8
L: 1/8
R: jig
K: Gmaj
|:d|ged B2A|GED G2A|Bee dBA|BAA ABd|
ged B2A|GED G2A|Bee dBA|BGF G2:|
|:B|dgg ged|BdB d3|eaa aga|bag e2a|
ged B2A|GED G2A|Bee dBA|BGF G2:|
